;FLAVOR:Marlin
;TIME:14497
;Filament used: 5.31379m
;Layer height: 0.25
;MINX:115.276
;MINY:114.339
;MINZ:0.2
;MAXX:153.74
;MAXY:133.72
;MAXZ:45.7
;Generated with Cura_SteamEngine 5.0.0
M82 ;absolute extrusion mode
;G28 X Y
;G1 Y10
M104 S280.0
;M190 S0
;G28
;G4 S5
;G34
;G29 E0
G21
G90
M83
;G1 X250 Y300 Z20
G92 E0
;G1 E50 F500
;G1 E45
;G92 E0
;M400
;G1 X240 F10000
;G1 X250
;G1 X240
;G1 X250
;G1 X240
;G1 X250
;G1 X20 Y20 F7200
;M400
;G1 E7 F500
;G92 E0
;M400
;G1 Z0.2
;M109 S280.0
;G1 X20 Y20 Z0.2 F5000.0
;G1 X20 Y200.0 Z0.2 F900.0 E10
G92 E0.0
M82
;M117 Printing
G92 E0
G92 E0
G1 F3600 E-2
;LAYER_COUNT:183
;LAYER:0
M107
;MESH:wedge 45  OL  rev2 v1.stl
G0 F1800 X116.603 Y115.215 Z0.2
;TYPE:WALL-INNER
G1 F3600 E0.04158
G1 F150 X116.603 Y132.841 E0.62782
G1 X152.94 Y132.843 E1.83639
G1 X152.94 Y124.029 E2.12955
G1 X152.94 Y115.215 E2.4227
G1 X116.603 Y115.215 E3.63128
G0 F1800 X116.203 Y114.815
G1 F150 X116.203 Y133.241 E4.24413
G1 X153.34 Y133.243 E5.47931
G1 X153.34 Y124.029 E5.78577
G1 X153.34 Y114.815 E6.09223
G1 X116.203 Y114.815 E7.32741
G0 F1800 X115.803 Y114.415
;TYPE:WALL-OUTER
G1 F150 X115.803 Y133.641 E7.96687
G1 X153.74 Y133.643 E9.22866
G1 X153.74 Y124.029 E9.54842
G1 X153.74 Y114.415 E9.86818
G1 X115.803 Y114.415 E11.12997
G0 F1800 X115.803 Y114.615
G0 X116.283 Y114.895
G0 X116.923 Y115.535
;TYPE:SKIN
G1 F150 X116.923 Y132.521 E11.69493
G1 X152.62 Y132.523 E12.88222
G1 X152.62 Y124.029 E13.16473
G1 X152.62 Y115.535 E13.44724
G1 X116.923 Y115.535 E14.63453
G0 F1800 X117.612 Y132.32
G1 F150 X117.122 Y131.83 E14.65757
G0 F1800 X117.122 Y131.264
G1 F150 X118.178 Y132.32 E14.70725
G0 F1800 X118.743 Y132.32
G1 F150 X117.122 Y130.698 E14.78352
G0 F1800 X117.122 Y130.133
G1 F150 X119.309 Y132.32 E14.88639
G0 F1800 X119.875 Y132.32
G1 F150 X117.122 Y129.567 E15.01588
G0 F1800 X117.122 Y129.001
G1 F150 X120.44 Y132.32 E15.17197
G0 F1800 X121.006 Y132.32
G1 F150 X117.122 Y128.436 E15.35466
G0 F1800 X117.122 Y127.87
G1 F150 X121.572 Y132.32 E15.56398
G0 F1800 X122.137 Y132.32
G1 F150 X117.122 Y127.304 E15.79989
G0 F1800 X117.122 Y126.738
G1 F150 X122.703 Y132.32 E16.06243
G0 F1800 X123.269 Y132.32
G1 F150 X117.122 Y126.173 E16.35156
G0 F1800 X117.122 Y125.607
G1 F150 X123.834 Y132.32 E16.6673
G0 F1800 X124.4 Y132.32
G1 F150 X117.122 Y125.041 E17.00966
G0 F1800 X117.122 Y124.476
G1 F150 X124.966 Y132.32 E17.37861
G0 F1800 X125.531 Y132.32
G1 F150 X117.122 Y123.91 E17.77417
G0 F1800 X117.122 Y123.344
G1 F150 X126.098 Y132.32 E18.19637
G0 F1800 X126.664 Y132.32
G1 F150 X117.122 Y122.779 E18.64518
G0 F1800 X117.122 Y122.213
G1 F150 X127.229 Y132.32 E19.12058
G0 F1800 X127.795 Y132.32
G1 F150 X117.122 Y121.647 E19.6226
G0 F1800 X117.122 Y121.082
G1 F150 X128.361 Y132.32 E20.15123
G0 F1800 X128.926 Y132.32
G1 F150 X117.122 Y120.516 E20.70645
G0 F1800 X117.122 Y119.95
G1 F150 X129.492 Y132.32 E21.2883
G0 F1800 X130.058 Y132.32
G1 F150 X117.122 Y119.385 E21.89675
G0 F1800 X117.122 Y118.819
G1 F150 X130.623 Y132.32 E22.53179
G0 F1800 X131.189 Y132.32
G1 F150 X117.122 Y118.253 E23.19346
G0 F1800 X117.122 Y117.688
G1 F150 X131.755 Y132.32 E23.88173
G0 F1800 X132.32 Y132.32
G1 F150 X117.122 Y117.122 E24.5966
G0 F1800 X117.122 Y116.556
G1 F150 X132.886 Y132.32 E25.33809
G0 F1800 X133.452 Y132.32
G1 F150 X117.122 Y115.99 E26.1062
G0 F1800 X117.432 Y115.734
G1 F150 X134.017 Y132.32 E26.88633
G0 F1800 X134.583 Y132.32
G1 F150 X117.997 Y115.734 E27.66648
G0 F1800 X118.563 Y115.734
G1 F150 X135.15 Y132.321 E28.44669
G0 F1800 X135.715 Y132.321
G1 F150 X119.129 Y115.734 E29.22686
G0 F1800 X119.694 Y115.734
G1 F150 X136.281 Y132.321 E30.00707
G0 F1800 X136.847 Y132.321
G1 F150 X120.26 Y115.734 E30.78727
G0 F1800 X120.826 Y115.734
G1 F150 X137.412 Y132.321 E31.56745
G0 F1800 X137.978 Y132.321
G1 F150 X121.391 Y115.734 E32.34765
G0 F1800 X121.957 Y115.734
G1 F150 X138.544 Y132.321 E33.12785
G0 F1800 X139.109 Y132.321
G1 F150 X122.523 Y115.734 E33.90803
G0 F1800 X123.088 Y115.734
G1 F150 X139.675 Y132.321 E34.68823
G0 F1800 X140.241 Y132.321
G1 F150 X123.654 Y115.734 E35.46843
G0 F1800 X124.22 Y115.734
G1 F150 X140.806 Y132.321 E36.24861
G0 F1800 X141.372 Y132.321
G1 F150 X124.785 Y115.734 E37.02881
G0 F1800 X125.351 Y115.734
G1 F150 X141.938 Y132.321 E37.80901
G0 F1800 X142.503 Y132.321
G1 F150 X125.917 Y115.734 E38.58919
G0 F1800 X126.483 Y115.734
G1 F150 X143.069 Y132.321 E39.36937
G0 F1800 X143.636 Y132.322
G1 F150 X127.048 Y115.734 E40.14962
G0 F1800 X127.614 Y115.734
G1 F150 X144.201 Y132.322 E40.92984
G0 F1800 X144.767 Y132.322
G1 F150 X128.18 Y115.734 E41.71007
G0 F1800 X128.745 Y115.734
G1 F150 X145.333 Y132.322 E42.49032
G0 F1800 X145.898 Y132.322
G1 F150 X129.311 Y115.734 E43.27054
G0 F1800 X129.877 Y115.734
G1 F150 X146.464 Y132.322 E44.05077
G0 F1800 X147.03 Y132.322
G1 F150 X130.442 Y115.734 E44.83101
G0 F1800 X131.008 Y115.734
G1 F150 X147.595 Y132.322 E45.61124
G0 F1800 X148.161 Y132.322
G1 F150 X131.574 Y115.734 E46.39146
G0 F1800 X132.139 Y115.734
G1 F150 X148.727 Y132.322 E47.17171
G0 F1800 X149.292 Y132.322
G1 F150 X132.705 Y115.734 E47.95194
G0 F1800 X133.271 Y115.734
G1 F150 X149.858 Y132.322 E48.73216
G0 F1800 X150.424 Y132.322
G1 F150 X133.836 Y115.734 E49.51241
G0 F1800 X134.402 Y115.734
G1 F150 X150.989 Y132.322 E50.29264
G0 F1800 X151.555 Y132.322
G1 F150 X134.968 Y115.734 E51.07286
G0 F1800 X135.533 Y115.734
G1 F150 X152.121 Y132.322 E51.85311
G0 F1800 X152.419 Y132.055
G1 F150 X136.099 Y115.734 E52.62078
G0 F1800 X136.665 Y115.734
G1 F150 X152.419 Y131.489 E53.36182
G0 F1800 X152.419 Y130.923
G1 F150 X137.231 Y115.734 E54.07624
G0 F1800 X137.796 Y115.734
G1 F150 X152.419 Y130.357 E54.76406
G0 F1800 X152.419 Y129.792
G1 F150 X138.362 Y115.734 E55.42528
G0 F1800 X138.928 Y115.734
G1 F150 X152.419 Y129.226 E56.05988
G0 F1800 X152.419 Y128.66
G1 F150 X139.493 Y115.734 E56.66788
G0 F1800 X140.059 Y115.734
G1 F150 X152.419 Y128.095 E57.24928
G0 F1800 X152.419 Y127.529
G1 F150 X140.625 Y115.734 E57.80406
G0 F1800 X141.19 Y115.734
G1 F150 X152.419 Y126.963 E58.33224
G0 F1800 X152.419 Y126.398
G1 F150 X141.756 Y115.734 E58.83382
G0 F1800 X142.322 Y115.734
G1 F150 X152.419 Y125.832 E59.30877
G0 F1800 X152.419 Y125.266
G1 F150 X142.887 Y115.734 E59.75713
G0 F1800 X143.453 Y115.734
G1 F150 X152.419 Y124.701 E60.17888
G0 F1800 X152.419 Y124.135
G1 F150 X144.019 Y115.734 E60.57402
G0 F1800 X144.584 Y115.734
G1 F150 X152.419 Y123.569 E60.94255
G0 F1800 X152.419 Y123.004
G1 F150 X145.15 Y115.734 E61.28449
G0 F1800 X145.716 Y115.734
G1 F150 X152.419 Y122.438 E61.5998
G0 F1800 X152.419 Y121.872
G1 F150 X146.282 Y115.734 E61.88849
G0 F1800 X146.847 Y115.734
G1 F150 X152.419 Y121.306 E62.15058
G0 F1800 X152.419 Y120.741
G1 F150 X147.413 Y115.734 E62.38607
G0 F1800 X147.979 Y115.734
G1 F150 X152.419 Y120.175 E62.59494
G0 F1800 X152.419 Y119.609
G1 F150 X148.544 Y115.734 E62.7772
G0 F1800 X149.11 Y115.734
G1 F150 X152.419 Y119.044 E62.93287
G0 F1800 X152.419 Y118.478
G1 F150 X149.676 Y115.734 E63.06192
G0 F1800 X150.241 Y115.734
G1 F150 X152.419 Y117.912 E63.16437
G0 F1800 X152.419 Y117.347
G1 F150 X150.807 Y115.734 E63.24021
G0 F1800 X151.373 Y115.734
G1 F150 X152.419 Y116.781 E63.28944
G0 F1800 X152.419 Y116.215
M104 S280
G1 F150 X151.938 Y115.734 E63.31206
G1 F3600 E61.31206
;MESH:NONMESH
G0 F600 X151.938 Y115.734 Z0.45
G0 F1800 X116.603 Y115.215
;TIME_ELAPSED:773.673318
;LAYER:1
;TYPE:WALL-INNER
;MESH:wedge 45  OL  rev2 v1.stl
G1 F3600 E63.35364
G1 F495 X116.603 Y132.844 E64.08657
G1 X152.94 Y132.843 E65.59728
G1 X152.94 Y124.029 E65.96373
G1 X152.94 Y115.215 E66.33017
G1 X116.603 Y115.215 E67.84089
G0 F4500 X116.203 Y114.815
G1 F495 X116.203 Y133.244 E68.60707
G1 X153.34 Y133.243 E70.15105
G1 X153.34 Y124.029 E70.53413
G1 X153.34 Y114.815 E70.9172
G1 X116.203 Y114.815 E72.46118
G0 F4500 X115.803 Y114.415
;TYPE:WALL-OUTER
G1 F285 X115.803 Y133.644 E73.26063
G1 X153.74 Y133.643 E74.83786
G1 X153.74 Y124.029 E75.23757
G1 X153.74 Y114.415 E75.63727
G1 X115.803 Y114.415 E77.21451
G0 F4500 X115.803 Y114.615
G0 X116.283 Y114.895
G0 X116.923 Y115.535
;TYPE:SKIN
G1 F285 X116.923 Y132.524 E77.92083
G1 X152.62 Y132.523 E79.40494
G1 X152.62 Y124.029 E79.75808
G1 X152.62 Y115.535 E80.11122
G1 X116.923 Y115.535 E81.59532
G0 F4500 X117.327 Y115.734
G1 F285 X117.123 Y115.939 E81.60735
G0 F4500 X117.123 Y116.505
G1 F285 X117.893 Y115.734 E81.65265
G0 F4500 X118.458 Y115.734
G1 F285 X117.123 Y117.07 E81.73117
G0 F4500 X117.123 Y117.636
G1 F285 X119.024 Y115.734 E81.84297
G0 F4500 X119.59 Y115.734
G1 F285 X117.123 Y118.202 E81.98805
G0 F4500 X117.123 Y118.767
G1 F285 X120.155 Y115.734 E82.16635
G0 F4500 X120.721 Y115.734
G1 F285 X117.123 Y119.333 E82.37793
G0 F4500 X117.123 Y119.899
G1 F285 X121.287 Y115.734 E82.62279
G0 F4500 X121.852 Y115.734
G1 F285 X117.123 Y120.464 E82.90086
G0 F4500 X117.123 Y121.03
G1 F285 X122.418 Y115.734 E83.21222
G0 F4500 X122.984 Y115.734
G1 F285 X117.123 Y121.596 E83.55685
G0 F4500 X117.123 Y122.161
G1 F285 X123.549 Y115.734 E83.93471
G0 F4500 X124.115 Y115.734
G1 F285 X117.123 Y122.727 E84.34584
G0 F4500 X117.123 Y123.293
G1 F285 X124.681 Y115.734 E84.79025
G0 F4500 X125.246 Y115.734
G1 F285 X117.123 Y123.858 E85.26788
G0 F4500 X117.123 Y124.424
G1 F285 X125.812 Y115.734 E85.77879
G0 F4500 X126.378 Y115.734
G1 F285 X117.123 Y124.99 E86.32298
G0 F4500 X117.123 Y125.556
G1 F285 X126.944 Y115.734 E86.90044
G0 F4500 X127.509 Y115.734
G1 F285 X117.123 Y126.121 E87.51113
G0 F4500 X117.123 Y126.687
G1 F285 X128.075 Y115.734 E88.15509
G0 F4500 X128.641 Y115.734
G1 F285 X117.123 Y127.253 E88.83234
G0 F4500 X117.123 Y127.818
G1 F285 X129.206 Y115.734 E89.5428
G0 F4500 X129.772 Y115.734
G1 F285 X117.123 Y128.384 E90.28654
G0 F4500 X117.123 Y128.95
G1 F285 X130.338 Y115.734 E91.06356
G0 F4500 X130.903 Y115.734
G1 F285 X117.123 Y129.515 E91.87381
G0 F4500 X117.123 Y130.081
G1 F285 X131.469 Y115.734 E92.71732
G0 F4500 X132.035 Y115.734
G1 F285 X117.123 Y130.647 E93.59412
G0 F4500 X117.123 Y131.212
G1 F285 X132.6 Y115.734 E94.50414
G0 F4500 X133.166 Y115.734
G1 F285 X117.123 Y131.778 E95.44744
G0 F4500 X117.144 Y132.323
G1 F285 X133.732 Y115.734 E96.42278
G0 F4500 X134.297 Y115.734
G1 F285 X117.709 Y132.323 E97.39812
G0 F4500 X118.275 Y132.323
G1 F285 X134.863 Y115.734 E98.37346
G0 F4500 X135.429 Y115.734
G1 F285 X118.841 Y132.323 E99.3488
G0 F4500 X119.407 Y132.323
G1 F285 X135.995 Y115.734 E100.32414
G0 F4500 X136.56 Y115.734
G1 F285 X119.972 Y132.323 E101.29948
G0 F4500 X120.538 Y132.323
G1 F285 X137.126 Y115.734 E102.27482
G0 F4500 X137.692 Y115.734
G1 F285 X121.104 Y132.323 E103.25016
G0 F4500 X121.669 Y132.323
G1 F285 X138.257 Y115.734 E104.2255
G0 F4500 X138.823 Y115.734
G1 F285 X122.235 Y132.323 E105.20084
G0 F4500 X122.801 Y132.323
G1 F285 X139.389 Y115.734 E106.17618
G0 F4500 X139.954 Y115.734
G1 F285 X123.366 Y132.323 E107.15152
G0 F4500 X123.932 Y132.323
G1 F285 X140.52 Y115.734 E108.12686
G0 F4500 X141.086 Y115.734
G1 F285 X124.498 Y132.323 E109.1022
G0 F4500 X125.063 Y132.323
G1 F285 X141.651 Y115.734 E110.07754
G0 F4500 X142.217 Y115.734
G1 F285 X125.629 Y132.323 E111.05288
G0 F4500 X126.195 Y132.323
G1 F285 X142.783 Y115.734 E112.02822
G0 F4500 X143.348 Y115.734
G1 F285 X126.76 Y132.323 E113.00356
G0 F4500 X127.326 Y132.323
G1 F285 X143.914 Y115.734 E113.9789
G0 F4500 X144.48 Y115.734
G1 F285 X127.892 Y132.323 E114.95424
G0 F4500 X128.457 Y132.323
G1 F285 X145.045 Y115.734 E115.92958
G0 F4500 X145.611 Y115.734
G1 F285 X129.023 Y132.323 E116.90492
G0 F4500 X129.589 Y132.323
G1 F285 X146.177 Y115.734 E117.88026
G0 F4500 X146.743 Y115.734
G1 F285 X130.155 Y132.323 E118.8556
G0 F4500 X130.72 Y132.323
G1 F285 X147.308 Y115.734 E119.83094
G0 F4500 X147.874 Y115.734
G1 F285 X131.286 Y132.323 E120.80628
G0 F4500 X131.852 Y132.323
G1 F285 X148.44 Y115.734 E121.78162
G0 F4500 X149.005 Y115.734
G1 F285 X132.417 Y132.323 E122.75696
G0 F4500 X132.983 Y132.323
G1 F285 X149.571 Y115.734 E123.7323
G0 F4500 X150.137 Y115.734
G1 F285 X133.549 Y132.323 E124.70764
G0 F4500 X134.114 Y132.323
G1 F285 X150.702 Y115.734 E125.68298
G0 F4500 X151.268 Y115.734
G1 F285 X134.68 Y132.323 E126.65832
G0 F4500 X135.246 Y132.323
G1 F285 X151.834 Y115.734 E127.63366
G0 F4500 X152.399 Y115.734
G1 F285 X135.811 Y132.323 E128.609
G0 F4500 X136.377 Y132.323
G1 F285 X152.418 Y116.281 E129.55218
G0 F4500 X152.418 Y116.847
G1 F285 X136.943 Y132.323 E130.46208
G0 F4500 X137.508 Y132.323
G1 F285 X152.418 Y117.412 E131.33876
G0 F4500 X152.418 Y117.978
G1 F285 X138.074 Y132.323 E132.18216
G0 F4500 X138.64 Y132.323
G1 F285 X152.418 Y118.544 E132.99229
G0 F4500 X152.418 Y119.11
G1 F285 X139.205 Y132.323 E133.76916
G0 F4500 X139.771 Y132.323
G1 F285 X152.418 Y119.675 E134.51279
G0 F4500 X152.418 Y120.241
G1 F285 X140.337 Y132.323 E135.22313
G0 F4500 X140.903 Y132.323
G1 F285 X152.418 Y120.807 E135.9002
G0 F4500 X152.418 Y121.372
G1 F285 X141.468 Y132.323 E136.54405
G0 F4500 X142.034 Y132.323
G1 F285 X152.418 Y121.938 E137.15462
G0 F4500 X152.418 Y122.504
G1 F285 X142.6 Y132.323 E137.73191
G0 F4500 X143.165 Y132.323
G1 F285 X152.418 Y123.069 E138.27598
G0 F4500 X152.418 Y123.635
G1 F285 X143.731 Y132.323 E138.78677
G0 F4500 X144.297 Y132.323
G1 F285 X152.418 Y124.201 E139.26428
G0 F4500 X152.418 Y124.766
G1 F285 X144.862 Y132.323 E139.70857
G0 F4500 X145.428 Y132.323
G1 F285 X152.418 Y125.332 E140.11959
G0 F4500 X152.418 Y125.898
G1 F285 X145.994 Y132.323 E140.49732
G0 F4500 X146.559 Y132.323
G1 F285 X152.418 Y126.463 E140.84184
G0 F4500 X152.418 Y127.029
G1 F285 X147.125 Y132.323 E141.15308
G0 F4500 X147.691 Y132.323
G1 F285 X152.418 Y127.595 E141.43104
G0 F4500 X152.418 Y128.16
G1 F285 X148.256 Y132.323 E141.67578
G0 F4500 X148.822 Y132.323
G1 F285 X152.418 Y128.726 E141.88724
G0 F4500 X152.418 Y129.292
G1 F285 X149.388 Y132.323 E142.06542
G0 F4500 X149.954 Y132.323
G1 F285 X152.418 Y129.858 E142.21032
G0 F4500 X152.418 Y130.423
G1 F285 X150.519 Y132.323 E142.322
G0 F4500 X151.085 Y132.323
G1 F285 X152.418 Y130.989 E142.40041
G0 F4500 X152.418 Y131.555
G1 F285 X151.651 Y132.323 E142.44554
G0 F4500 X152.216 Y132.323
G1 F285 X152.418 Y132.12 E142.45744
G1 F3600 E140.45744
;MESH:NONMESH
G0 F600 X152.418 Y132.12 Z0.7
G0 F4500 X116.603 Y115.215
;TIME_ELAPSED:1159.712828
;LAYER:2
;TYPE:WALL-INNER
;MESH:wedge 45  OL  rev2 v1.stl
G1 F3600 E142.49902
G1 F840 X116.603 Y132.844 E143.23195
G1 X152.94 Y132.843 E144.74266
G1 X152.94 Y124.029 E145.10911
G1 X152.94 Y115.215 E145.47555
G1 X116.603 Y115.215 E146.98627
G0 F7200 X116.203 Y114.815
G1 F840 X116.203 Y133.244 E147.75246
G1 X153.34 Y133.243 E149.29643
G1 X153.34 Y124.029 E149.67951
G1 X153.34 Y114.815 E150.06258
G1 X116.203 Y114.815 E151.60656
G0 F7200 X115.803 Y114.415
;TYPE:WALL-OUTER
G1 F420 X115.803 Y133.644 E152.40601
G1 X153.74 Y133.643 E153.98324
G1 X153.74 Y124.029 E154.38295
G1 X153.74 Y114.415 E154.78265
G1 X115.803 Y114.415 E156.35989
G0 F7200 X115.803 Y114.615
G0 X116.283 Y114.895
G0 X116.923 Y115.535
;TYPE:SKIN
G1 F420 X116.923 Y132.524 E157.06621
G1 X152.62 Y132.523 E158.55032
G1 X152.62 Y124.029 E158.90346
G1 X152.62 Y115.535 E159.2566
G1 X116.923 Y115.535 E160.7407
G0 F7200 X117.615 Y132.323
G1 F420 X117.122 Y131.83 E160.76969
G0 F7200 X117.122 Y131.264
G1 F420 X118.18 Y132.323 E160.83193
G0 F7200 X118.746 Y132.323
G1 F420 X117.122 Y130.698 E160.92744
G0 F7200 X117.122 Y130.133
G1 F420 X119.312 Y132.323 E161.0562
G0 F7200 X119.877 Y132.323
G1 F420 X117.122 Y129.567 E161.21822
G0 F7200 X117.122 Y129.001
G1 F420 X120.443 Y132.323 E161.41351
G0 F7200 X121.009 Y132.323
G1 F420 X117.122 Y128.436 E161.64205
G0 F7200 X117.122 Y127.87
G1 F420 X121.574 Y132.323 E161.90384
G0 F7200 X122.14 Y132.323
G1 F420 X117.122 Y127.304 E162.19891
G0 F7200 X117.122 Y126.738
G1 F420 X122.706 Y132.323 E162.52726
G0 F7200 X123.272 Y132.323
G1 F420 X117.122 Y126.173 E162.88885
G0 F7200 X117.122 Y125.607
G1 F420 X123.837 Y132.323 E163.2837
G0 F7200 X124.403 Y132.323
G1 F420 X117.122 Y125.041 E163.71182
G0 F7200 X117.122 Y124.476
G1 F420 X124.969 Y132.323 E164.1732
G0 F7200 X125.534 Y132.323
G1 F420 X117.122 Y123.91 E164.66782
G0 F7200 X117.122 Y123.344
G1 F420 X126.1 Y132.323 E165.19572
